X:109
T:Sally's Fancy. Ru2.109
%%VWML:RutherfordVol2-2249-p55-0
F:http://www.vwml.org/record/RutherfordVol2/2249/p55
B:RUTHERFORD Complete Collection of 200 Country Dances Vol.2; 1759.
Z:vmp.Mike Hicken 2015 www.village-music-project.org.uk
N: * In the original these notes are shown as crotchets. They have been changed to quavers to give the correct repeats.
N: The final symbol of dance notation in the original is :|
M:C|
Q:1/4=140
K:D
|:G|AF d2 cA g2|facd e/d/c/B/ AG|FD d2 cA g2|fa Ac d2 "*"D:|
|:a|fd a2 ec g2|fdcd e/d/c/B/ Ag|fd f/g/a ec e/f/g|fdec d3 :|
|:G|FDGE AFBG|gefd e/d/c/B/ Ag|fdge afbg|fa Ac d2"*"D :|
W:
W: Gallop down one Cu: up again & cast off .| down
W: another Cu: up again & cast off :|  Hands round 6 .|.
W: Back again :|.  Lead to the top & cast off.||:  Right &
W: left at top :|
T:Shambuy. Ru2.110
L:1/8
B:RUTHERFORD Complete Collection of 200 Country Dances Vol.2; 1759.
Z:vmp.Mike Hicken 2015 www.village-music-project.org.uk
N: * A small section on the right hand side of the image used to transcribe this tune is missing.
N: These notes are based on Shambuy from http://abcnotation.com
N: The final symbol of dance notation in the original is :|
M:6/8
Q:3/8=100
K:D
|:D2A AFA|B/c/dF TE2D|D2A AFA|B3 "*"d3|
D2A AFA|B/c/dF TE2D|(d/e/fd) (c/d/ec)|B3d3 :|
|:d/e/fd c/d/ec|B/c/dF TE2D|d/e/fd c/d/ec|B3"*"d3 |
d/e/fd c/d/ec|B/c/dF TE2D|D2A AFA|B3"*"d3 :|
W:
W: Set three & turn .|  the same on the Man('s)
W: side :|  Cross over two Cu: .|.  Lead to the to(p)
W: foot it & cast off :|.  Lead thro bottom cast
W: & turn .||  thro the top cast off & turn :|| Hands
W: round 4 with the 3d Cu: .||:  Right & Left at top :|
